X: 1
T: Molly St. George
B: A COLECTION of the most Celebrated Irish Tunes2 p.4a
M: 3/4
L: 1/8
K: G
(d/e/f) |\
g2 f2 e2 | d2 (ed) (cB) | c2 B2 A>G | E4 Bd |\
e2 (ge) (dB) | A2 B/c/d D2 | E2 (G/A/B) AG | G4 :|
|: (DE) |\
GA B2 (A/B/c) | B2 (cB) (AG) | (cB cd) ef | g4 eg |\
a2 ba ge | d2 ed cB | c2 cd Bc | A4 (BA/B/) |
cB cd ef | G4 (fe) | (dg) (dB) (AG) | E4 Bd |\
e2 (ge) (dB) | A2 (B/c/d) D2 | E2 (G/A/B) A>G | G6 :|
